icons/svg/box-drag.svg

<svg width="24" height="24" viewBox="0 0 24 24" fill="none" xmlns="http://www.w3.org/2000/svg">
<path d="M12.0727 17.5326L12.0727 14.5292V13.6692M14.617 10.7322C14.617 10.0332 14.0474 9.46654 13.3448 9.46654C12.6422 9.46654 12.0727 10.0332 12.0727 10.7322L12.0727 13.6692M14.617 13.2252L14.617 9.01565C14.617 8.31665 15.1866 7.75 15.8892 7.75C16.5917 7.75 17.1613 8.31665 17.1613 9.01565L17.1613 10.7322M17.1613 10.7322L17.1613 13.2252M17.1613 10.7322C17.1613 10.0332 17.7309 9.46195 18.4335 9.46195C19.1361 9.46195 19.7056 10.0332 19.7056 10.7322L19.7056 12.4487M19.7056 12.4487V13.2252M19.7056 12.4487C19.7056 11.7497 20.2752 11.1831 20.9778 11.1831C21.6804 11.1831 22.25 11.7497 22.25 12.4487L22.25 17.1004C22.25 19.9444 19.9444 22.25 17.1004 22.25H14.7894C13.3334 22.25 11.9357 21.6778 10.8977 20.6569C9.75693 19.5349 9.15593 17.9751 9.24889 16.3777L9.26057 16.177C9.31832 15.1847 9.9825 14.331 10.9302 14.0309L12.0727 13.6692" stroke="currentColor" stroke-width="1.5" stroke-linecap="round" stroke-linejoin="round"/>
<path d="M6.75 18.25C5.09315 18.25 3.75 16.9069 3.75 15.25V6.75C3.75 5.09315 5.09315 3.75 6.75 3.75H15.25C16.7365 3.75 17.9705 4.83114 18.2085 6.25" stroke="currentColor" stroke-width="1.5" stroke-linecap="round" stroke-linejoin="round"/>
</svg>

<svg xmlns="http://www.w3.org/2000/svg" width="24" height="24" fill="none" viewBox="0 0 24 24"><path stroke="currentColor" stroke-linecap="round" stroke-linejoin="round" stroke-width="1.5" d="M12.073 17.533v-3.864m2.544-2.937c0-.699-.57-1.265-1.272-1.265s-1.272.566-1.272 1.265v2.937m2.544-.444v-4.21c0-.698.57-1.265 1.272-1.265s1.272.567 1.272 1.266v1.716m0 0v2.493m0-2.493a1.273 1.273 0 0 1 2.545 0v1.717m0 0v.776m0-.776c0-.7.57-1.266 1.272-1.266s1.272.567 1.272 1.266V17.1a5.15 5.15 0 0 1-5.15 5.15h-2.31a5.55 5.55 0 0 1-5.541-5.872l.012-.201a2.4 2.4 0 0 1 1.67-2.146l1.142-.362"/><path stroke="currentColor" stroke-linecap="round" stroke-linejoin="round" stroke-width="1.5" d="M6.75 18.25a3 3 0 0 1-3-3v-8.5a3 3 0 0 1 3-3h8.5a3 3 0 0 1 2.959 2.5"/></svg>
